dist/img/svg/partners__slide__4.svg

<svg width="134" height="53" viewBox="0 0 134 53" fill="none" xmlns="http://www.w3.org/2000/svg">
<g opacity="0.65" clip-path="url(#clip0_424_52)">
<path fill-rule="evenodd" clip-rule="evenodd" d="M38.592 15.4711V28.7057H41.6889V17.975H47.7636V28.7057H50.8605V15.4711H38.592ZM62.1165 28.9442C66.3449 28.9442 69.5013 26.0231 69.5013 22.0884C69.5013 18.1538 66.3449 15.2327 62.1165 15.2327C57.8285 15.2327 54.7316 18.1538 54.7316 22.0884C54.7316 26.0231 57.8285 28.9442 62.1165 28.9442ZM62.1165 26.3211C59.6747 26.3211 57.888 24.5923 57.888 22.0884C57.888 19.5846 59.6747 17.8557 62.1165 17.8557C64.5582 17.8557 66.3449 19.5846 66.3449 22.0884C66.3449 24.5923 64.4987 26.3211 62.1165 26.3211ZM74.5636 15.4711L74.3849 20.8365C74.2658 24.2346 73.8489 26.2019 72.2409 26.2019C72.0622 26.2019 71.8836 26.2019 71.7049 26.1423L71.5262 28.7057C72.1218 28.825 72.5982 28.8846 73.0747 28.8846C76.2311 28.8846 77.0053 25.9038 77.184 20.7173L77.3031 17.975H81.9485V28.7057H85.0453V15.4711H74.5636ZM89.6907 28.7057H92.6685L99.1004 20.1211V28.7057H102.197V15.4711H99.2791L92.7876 24.1154V15.4711H89.6907V28.7057ZM115.657 28.7057H119.23L114.644 21.85L119.052 15.4711H115.776L112.203 20.8365H109.94V15.4711H106.843V28.7057H109.94V23.4H112.084L115.657 28.7057ZM128.402 28.9442C130.784 28.9442 132.69 28.1096 134 26.5596L131.975 24.7711C131.082 25.7846 129.95 26.3211 128.58 26.3211C126.079 26.3211 124.233 24.5923 124.233 22.0884C124.233 19.5846 126.02 17.8557 128.58 17.8557C129.95 17.8557 131.082 18.3923 131.975 19.4057L134 17.6173C132.749 16.1269 130.784 15.2923 128.461 15.2923C124.233 15.2923 121.136 18.1538 121.136 22.1481C121.076 26.0827 124.173 28.9442 128.402 28.9442Z" fill="black"/>
<path fill-rule="evenodd" clip-rule="evenodd" d="M43.2969 32.5212H38.1155V39.6751H39.4853V33.6539H43.2373L43.2969 32.5212ZM48.0018 32.5212H44.9049V39.6751H46.3342V37.5885H48.0613C50.0266 37.5885 51.2773 36.6347 51.2773 35.0251C51.2178 33.4751 49.9671 32.5212 48.0018 32.5212ZM47.9422 36.5155H46.2746V33.6539H47.9422C49.1929 33.6539 49.7884 34.1905 49.7884 35.0847C49.7884 35.9789 49.1333 36.5155 47.9422 36.5155ZM57.9475 32.5212L55.6249 36.7539L53.3618 32.5212H51.8729L54.9102 37.8866L54.7911 38.0655C54.4933 38.5424 54.136 38.7212 53.6595 38.7212C53.4213 38.7212 53.1831 38.6616 52.9449 38.602L52.5875 39.6155C52.9449 39.7943 53.3618 39.8539 53.7191 39.8539C54.6124 39.8539 55.4462 39.377 56.0418 38.3039L59.3173 32.5212H57.9475ZM60.6871 32.5212V39.6751H62.0569V33.6539H65.9875V39.6751H67.3573V32.5212H60.6871ZM69.9778 32.5212V39.6751H71.3475V33.6539H75.2782V39.6751H76.648V32.5212H69.9778Z" fill="black"/>
<path fill-rule="evenodd" clip-rule="evenodd" d="M12.1493 26.0827C14.5911 23.3404 15.4844 20.7769 20.0107 19.9423C25.8471 18.8096 25.9067 20.0019 29.48 21.6115C28.5867 11.5365 12.1493 16.5442 12.1493 26.0827Z" fill="black"/>
<path fill-rule="evenodd" clip-rule="evenodd" d="M5.18135 34.2499C13.3405 41.523 22.6311 31.8653 19.9511 26.2615C18.8791 38.8999 -0.833758 28.8846 5.18135 34.2499Z" fill="black"/>
<path fill-rule="evenodd" clip-rule="evenodd" d="M1.66755 20.5981L0.952884 22.1481C-0.952893 29.0039 4.82399 32.4616 11.4942 31.6866C14.1742 31.3885 16.0204 30.1962 17.9858 29.1828C16.5564 28.4674 12.328 31.8655 6.90843 27.0366C1.96533 22.6847 6.13421 12.0135 1.66755 20.5981Z" fill="black"/>
<path fill-rule="evenodd" clip-rule="evenodd" d="M14.8889 23.7576C15.9609 24.2345 17.6284 23.2211 19.6533 23.3403C22.0356 23.5192 24.3582 24.7711 25.8471 26.2615C27.6933 28.0499 29.0036 31.2095 28.5271 33.9518L28.1102 36.2172C36.2693 34.1307 31.6836 13.6826 14.8889 23.7576Z" fill="black"/>
<path fill-rule="evenodd" clip-rule="evenodd" d="M7.68266 25.6059C8.81422 27.0366 11.0773 28.8251 13.2213 29.0039L11.8516 27.8116C5.36 22.5655 17.8667 11.1789 24.1796 15.2924C24.656 7.36354 -2.38222 12.7885 7.68266 25.6059Z" fill="black"/>
<path fill-rule="evenodd" clip-rule="evenodd" d="M24.5964 27.6923C23.4649 26.2615 21.2018 24.473 19.0578 24.2942L20.4276 25.4865C26.9191 30.7327 14.4124 42.1192 8.09955 38.0653C7.62311 45.9942 34.6613 40.5096 24.5964 27.6923Z" fill="black"/>
</g>
<defs>
<clipPath id="clip0_424_52">
<rect width="134" height="53" fill="white"/>
</clipPath>
</defs>
</svg>

<svg width="134" height="53" viewBox="0 0 134 53" fill="none" xmlns="http://www.w3.org/2000/svg"><g opacity=".65" clip-path="url(#clip0_424_52)" fill-rule="evenodd" clip-rule="evenodd" fill="#000"><path d="M38.592 15.471v13.235h3.097V17.975h6.075v10.73h3.096V15.472H38.593zm23.525 13.473c4.228 0 7.384-2.92 7.384-6.856 0-3.934-3.156-6.855-7.385-6.855-4.288 0-7.384 2.92-7.384 6.855 0 3.935 3.096 6.856 7.385 6.856zm0-2.623c-2.442 0-4.229-1.729-4.229-4.233 0-2.503 1.787-4.232 4.229-4.232 2.441 0 4.228 1.729 4.228 4.232 0 2.504-1.846 4.233-4.228 4.233zm12.447-10.85l-.18 5.366c-.118 3.398-.535 5.365-2.143 5.365-.179 0-.357 0-.536-.06l-.179 2.564c.596.119 1.072.179 1.549.179 3.156 0 3.93-2.981 4.109-8.168l.12-2.742h4.644v10.73h3.097V15.472H74.564zM89.69 28.706h2.977L99.1 20.12v8.585h3.097V15.47h-2.918l-6.491 8.644V15.47H89.69v13.235zm25.966 0h3.573l-4.586-6.856 4.408-6.379h-3.276l-3.573 5.366h-2.263V15.47h-3.097v13.235h3.097V23.4h2.144l3.573 5.306zm12.745.238c2.382 0 4.288-.834 5.598-2.384l-2.025-1.789c-.893 1.014-2.025 1.55-3.395 1.55-2.501 0-4.347-1.729-4.347-4.233 0-2.503 1.787-4.232 4.347-4.232 1.37 0 2.502.536 3.395 1.55L134 17.617c-1.251-1.49-3.216-2.325-5.539-2.325-4.228 0-7.325 2.862-7.325 6.856-.06 3.935 3.037 6.796 7.266 6.796zm-85.104 3.577h-5.181v7.154h1.37v-6.021h3.751l.06-1.133zm4.705 0h-3.097v7.154h1.43V37.59h1.726c1.966 0 3.216-.954 3.216-2.564-.06-1.55-1.31-2.504-3.275-2.504zm-.06 3.995h-1.667v-2.862h1.667c1.25 0 1.846.536 1.846 1.43 0 .895-.655 1.431-1.846 1.431zm10.005-3.995l-2.322 4.233-2.263-4.233h-1.49l3.038 5.366-.119.178c-.298.477-.655.656-1.131.656-.239 0-.477-.06-.715-.119l-.358 1.014c.358.178.775.238 1.132.238.893 0 1.727-.477 2.323-1.55l3.275-5.783h-1.37zm2.74 0v7.154h1.37v-6.021h3.93v6.021h1.37v-7.154h-6.67zm9.29 0v7.154h1.37v-6.021h3.931v6.021h1.37v-7.154h-6.67zM12.15 26.083c2.441-2.743 3.334-5.306 7.86-6.14 5.837-1.133 5.897.059 9.47 1.668-.893-10.075-17.33-5.067-17.33 4.472zM5.181 34.25c8.16 7.273 17.45-2.385 14.77-7.988C18.88 38.9-.834 28.885 5.181 34.25z"/><path d="M1.668 20.598l-.715 1.55c-1.906 6.856 3.871 10.314 10.541 9.539 2.68-.299 4.526-1.49 6.492-2.504-1.43-.716-5.658 2.683-11.078-2.146-4.943-4.352-.774-15.023-5.24-6.439zm13.221 3.16c1.072.477 2.74-.537 4.764-.418 2.383.18 4.705 1.431 6.194 2.922 1.846 1.788 3.157 4.947 2.68 7.69l-.417 2.265c8.16-2.086 3.574-22.534-13.221-12.46z"/><path d="M7.683 25.606c1.131 1.43 3.394 3.22 5.538 3.398l-1.37-1.192c-6.491-5.247 6.016-16.633 12.329-12.52.476-7.928-26.562-2.503-16.497 10.314zm16.913 2.086c-1.131-1.43-3.394-3.219-5.538-3.398l1.37 1.192c6.491 5.247-6.016 16.633-12.328 12.58-.477 7.928 26.561 2.444 16.496-10.374z"/></g><defs><clipPath id="clip0_424_52"><path fill="#fff" d="M0 0h134v53H0z"/></clipPath></defs></svg>
